img/icons/frontend.svg

<svg width="50" height="48" viewBox="0 0 50 48" fill="none" xmlns="http://www.w3.org/2000/svg">
<g clip-path="url(#clip0)">
<path fill-rule="evenodd" clip-rule="evenodd" d="M47.619 44.392C47.619 45.058 47.079 45.6 46.424 45.6H3.576C3.41812 45.5995 3.2619 45.5678 3.1163 45.5067C2.97071 45.4457 2.8386 45.3565 2.72757 45.2442C2.61654 45.132 2.52877 44.9989 2.46929 44.8527C2.40982 44.7064 2.37981 44.5499 2.381 44.392V12H47.619V44.392ZM3.576 2.4H46.424C47.082 2.4 47.614 2.934 47.618 3.6L47.619 3.608V9.6H2.381V3.608L2.382 3.6C2.387 2.939 2.922 2.4 3.576 2.4V2.4ZM50 3.6L50.001 3.608V44.392C50 46.385 48.393 48 46.424 48H3.576C1.601 48 0 46.388 0 44.392V3.608L0.001 3.6C0.00284397 2.8607 0.232259 2.13989 0.658071 1.53552C1.08388 0.931154 1.68544 0.47254 2.381 0.222C2.76334 0.0788723 3.16777 0.00373968 3.576 0L46.424 0C48.396 0 49.994 1.607 49.999 3.6H50ZM5.952 7.2C6.611 7.2 7.142 6.663 7.142 6C7.142 5.336 6.611 4.8 5.952 4.8C5.294 4.8 4.762 5.336 4.762 6C4.762 6.663 5.294 7.2 5.952 7.2ZM9.524 7.2C10.182 7.2 10.714 6.663 10.714 6C10.714 5.336 10.182 4.8 9.524 4.8C8.865 4.8 8.334 5.336 8.334 6C8.334 6.663 8.865 7.2 9.524 7.2ZM13.095 7.2C13.754 7.2 14.285 6.663 14.285 6C14.285 5.336 13.754 4.8 13.095 4.8C12.437 4.8 11.905 5.336 11.905 6C11.905 6.663 12.437 7.2 13.095 7.2ZM35.365 20.751C35.313 20.7 35.248 20.675 35.19 20.634C34.726 20.311 34.095 20.334 33.682 20.751C33.4582 20.9767 33.3326 21.2817 33.3326 21.5995C33.3326 21.9173 33.4582 22.2223 33.682 22.448L35.19 23.968L38.726 27.533L35.19 31.099L33.682 32.619C33.4582 32.8447 33.3326 33.1497 33.3326 33.4675C33.3326 33.7853 33.4582 34.0903 33.682 34.316C34.095 34.731 34.726 34.758 35.19 34.433C35.248 34.393 35.313 34.369 35.365 34.316L41.252 28.381C41.4758 28.1553 41.6014 27.8503 41.6014 27.5325C41.6014 27.2147 41.4758 26.9097 41.252 26.684L35.365 20.751V20.751ZM28.481 16.881C28.097 16.731 27.696 16.812 27.381 17.031C27.193 17.163 27.027 17.331 26.938 17.562L26.768 18L22.751 28.347L19.13 37.677C19.0137 37.9727 19.0194 38.3026 19.146 38.5941C19.2725 38.8856 19.5095 39.115 19.805 39.232C19.9509 39.289 20.1065 39.3166 20.2631 39.3132C20.4197 39.3098 20.574 39.2756 20.7173 39.2124C20.8606 39.1492 20.9899 39.0583 21.098 38.945C21.2061 38.8317 21.2907 38.6981 21.347 38.552L22.751 34.933L27.381 23.007L29.155 18.437C29.21 18.293 29.231 18.145 29.231 18C29.231 17.52 28.951 17.067 28.481 16.882V16.881ZM16.451 22.448C16.6748 22.2223 16.8004 21.9173 16.8004 21.5995C16.8004 21.2817 16.6748 20.9767 16.451 20.751C16.341 20.6394 16.2099 20.5507 16.0654 20.4902C15.9208 20.4297 15.7657 20.3986 15.609 20.3986C15.4523 20.3986 15.2972 20.4297 15.1526 20.4902C15.0081 20.5507 14.877 20.6394 14.767 20.751L13.096 22.436L8.88 26.684C8.65619 26.9097 8.53061 27.2147 8.53061 27.5325C8.53061 27.8503 8.65619 28.1553 8.88 28.381L13.096 32.631L14.767 34.316C14.8772 34.4271 15.0082 34.5153 15.1527 34.5755C15.2971 34.6357 15.452 34.6667 15.6085 34.6667C15.765 34.6667 15.9199 34.6357 16.0643 34.5755C16.2088 34.5153 16.3398 34.4271 16.45 34.316C16.916 33.847 16.916 33.086 16.45 32.619L13.096 29.237L11.406 27.533L13.096 25.83L16.45 22.448H16.451Z" fill="#4462FF"/>
</g>
<defs>
<clipPath id="clip0">
<rect width="50" height="48" fill="white"/>
</clipPath>
</defs>
</svg>

<svg width="50" height="48" viewBox="0 0 50 48" xmlns="http://www.w3.org/2000/svg"><title>FRONT END</title><path d="M47.619 44.392c0 .666-.54 1.208-1.195 1.208H3.576a1.199 1.199 0 0 1-1.195-1.208V12H47.619V44.392zM3.576 2.4h42.848c.658 0 1.19.534 1.194 1.2l.001.008V9.6H2.381V3.608l.001-.008c.005-.661.54-1.2 1.194-1.2zM50 3.6l.001.008v40.784C50 46.385 48.393 48 46.424 48H3.576C1.601 48 0 46.388 0 44.392V3.608L.001 3.6A3.6 3.6 0 0 1 2.381.222 3.5 3.5 0 0 1 3.576 0h42.848c1.972 0 3.57 1.607 3.575 3.6zM5.952 7.2c.659 0 1.19-.537 1.19-1.2 0-.664-.531-1.2-1.19-1.2-.658 0-1.19.536-1.19 1.2 0 .663.532 1.2 1.19 1.2zm3.572 0c.658 0 1.19-.537 1.19-1.2 0-.664-.532-1.2-1.19-1.2-.659 0-1.19.536-1.19 1.2 0 .663.531 1.2 1.19 1.2zm3.571 0c.659 0 1.19-.537 1.19-1.2 0-.664-.531-1.2-1.19-1.2-.658 0-1.19.536-1.19 1.2 0 .663.532 1.2 1.19 1.2zm22.27 13.551c-.052-.051-.117-.076-.175-.117-.464-.323-1.095-.3-1.508.117a1.205 1.205 0 0 0 0 1.697l1.508 1.52 3.536 3.565-3.536 3.566-1.508 1.52a1.205 1.205 0 0 0 0 1.697c.413.415 1.044.442 1.508.117.058-.04.123-.064.175-.117l5.887-5.935a1.205 1.205 0 0 0 0-1.697l-5.887-5.933zm-6.884-3.87c-.384-.15-.785-.069-1.1.15-.188.132-.354.3-.443.531l-.17.438-4.017 10.347-3.621 9.33a1.2 1.2 0 0 0 .675 1.555 1.189 1.189 0 0 0 1.542-.68l1.404-3.619 4.63-11.926 1.774-4.57c.055-.144.076-.292.076-.437 0-.48-.28-.933-.75-1.118zm-12.03 5.567a1.205 1.205 0 0 0 0-1.697 1.182 1.182 0 0 0-1.684 0l-1.671 1.685-4.216 4.248a1.205 1.205 0 0 0 0 1.697l4.216 4.25 1.671 1.685a1.185 1.185 0 0 0 1.683 0c.466-.469.466-1.23 0-1.697l-3.354-3.382-1.69-1.704 1.69-1.703 3.354-3.382z" fill="#8C43FF" fill-rule="evenodd"/></svg>
